theme/icons/ui-kit.svg

<svg fill="none" height="24" viewBox="0 0 24 24" width="24" xmlns="http://www.w3.org/2000/svg"><g fill="#f4f4f7"><path clip-rule="evenodd" d="m14 6h-4c-.55228 0-1 .44772-1 1v10c0 .5523.44772 1 1 1h4c.5523 0 1-.4477 1-1v-10c0-.55228-.4477-1-1-1zm-4-2c-1.65685 0-3 1.34315-3 3v10c0 1.6569 1.34315 3 3 3h4c1.6569 0 3-1.3431 3-3v-10c0-1.65685-1.3431-3-3-3z" fill-rule="evenodd"/><path d="m6 7.45936-2.5068-.4178c-1.8286-.30477-3.4932 1.10536-3.4932 2.95914v4.9173c0 1.8538 1.6646 3.2639 3.4932 2.9592l2.5068-.4178v-2.0276l-2.8356.4726c-.60953.1016-1.1644-.3685-1.1644-.9864v-4.9173c0-.6179.55487-1.08794 1.1644-.98635l2.8356.4726z"/><path d="m18 7.45936 2.5068-.4178c1.8286-.30477 3.4932 1.10536 3.4932 2.95914v4.9173c0 1.8538-1.6646 3.2639-3.4932 2.9592l-2.5068-.4178v-2.0276l2.8356.4726c.6095.1016 1.1644-.3685 1.1644-.9864v-4.9173c0-.6179-.5549-1.08794-1.1644-.98635l-2.8356.4726z"/></g></svg>

<svg fill="none" height="24" width="24" xmlns="http://www.w3.org/2000/svg">
    <g fill="#f4f4f7">
        <path clip-rule="evenodd" d="M14 6h-4a1 1 0 0 0-1 1v10a1 1 0 0 0 1 1h4a1 1 0 0 0 1-1V7a1 1 0 0 0-1-1zm-4-2a3 3 0 0 0-3 3v10a3 3 0 0 0 3 3h4a3 3 0 0 0 3-3V7a3 3 0 0 0-3-3z" fill-rule="evenodd"/>
        <path d="m6 7.46-2.507-.418A3 3 0 0 0 0 10v4.917a3 3 0 0 0 3.493 2.96L6 17.458v-2.027l-2.836.472A1 1 0 0 1 2 14.918v-4.917a1 1 0 0 1 1.164-.987L6 9.487zm12 0 2.507-.418A3 3 0 0 1 24 10v4.917a3 3 0 0 1-3.493 2.96L18 17.458v-2.027l2.836.472A1 1 0 0 0 22 14.918v-4.917a1 1 0 0 0-1.164-.987L18 9.487z"/>
    </g>
</svg>
